X: 3
T: Peacock, The
Z: ceolachan
S: https://thesession.org/tunes/6359#setting18109
R: barndance
M: 4/4
L: 1/8
K: Emin
BA |G2 E2 E2 DE | G2 G2 A2 GA | B2 B2 BA GA | B2 D2 D2 BA |
B2 E2 E2 DE | G2 G2 A2 GA | B2 e2 dB GB | G2 E2 E2 B2 |
dB de d2 B2 | dB de d2 B2 | c2 B2 BA GA | B2 D2 D2 BA |
G2 E2 E2 DE | G2 G2 A2 GA | B2 e2 dB AB | G2 E2 E2 |]
